apps/earn-protocol-landing-page/public/img/landing-page/protocols/morpho-blue.svg

<svg width="42" height="40" viewBox="0 0 42 40" fill="none" xmlns="http://www.w3.org/2000/svg">
  <path
    d="M17.8165 25.7107C16.8931 23.7141 14.6719 22.0169 12.0513 20.6443L7.6338 23.0901C6.18625 23.9137 5.26282 25.3862 5.26282 26.9585V38.1146C5.26282 38.8134 5.83684 39.088 6.0365 39.1628C6.21121 39.2377 6.83515 39.4124 7.35926 38.9133L15.795 30.802C16.5187 30.1032 17.2175 29.3794 17.7167 28.5309C17.9663 28.1316 18.0661 27.9069 18.0661 27.9069C18.141 27.7322 18.2158 27.5575 18.2658 27.3828C18.2408 26.8088 18.0661 26.2597 17.8165 25.7107Z"
    fill="#8D8D8D" />
  <path
    d="M34.2886 23.0903L29.8711 20.6194C27.2505 22.0171 25.0293 23.7142 24.1059 25.6858C23.8563 26.2599 23.6816 26.8089 23.6317 27.383C23.6816 27.5577 23.7565 27.7074 23.8313 27.8821C23.8313 27.8821 23.9811 28.2066 24.3305 28.7307C24.7797 29.4045 25.3288 30.0035 25.9278 30.5776L34.5631 38.8635C35.1122 39.3626 35.7112 39.1879 35.8859 39.1131C36.0606 39.0382 36.6596 38.7637 36.6596 38.0649V26.9088C36.6596 25.3864 35.7611 23.9388 34.2886 23.0903Z"
    fill="#8D8D8D" />
  <path
    d="M41.5013 2.17568V13.8559C41.5013 15.3284 40.528 16.6262 39.1303 17.0255C34.3884 18.3982 26.1024 21.3432 24.1058 25.6858C23.8562 26.2598 23.6815 26.8089 23.6316 27.4079C22.3089 24.987 21.6849 22.1917 21.9844 19.3715C22.3837 15.3783 24.4802 11.7345 27.7996 9.4134L39.5796 1.15241C39.7792 1.00267 40.0288 0.927795 40.2784 0.927795C40.478 0.927795 40.6777 0.977712 40.8524 1.07754C41.2517 1.30216 41.5013 1.70148 41.5013 2.17568Z"
    fill="#FFFBFD" />
  <path
    d="M0.421051 2.17565V13.8558C0.421051 15.3283 1.3944 16.6261 2.79203 17.0255C7.53399 18.3981 15.8199 21.3431 17.8165 25.6858C18.0661 26.2598 18.2408 26.8089 18.2907 27.4078C19.6135 24.987 20.2374 22.1917 19.9379 19.3715C19.5386 15.3783 17.4422 11.7344 14.1228 9.41337L2.34279 1.17735C2.14313 1.0276 1.89355 0.952728 1.64398 0.952728C1.44432 0.952728 1.24466 1.00264 1.06995 1.10247C0.670629 1.30214 0.421051 1.70146 0.421051 2.17565Z"
    fill="#FFFBFD" />
</svg>

<svg xmlns="http://www.w3.org/2000/svg" width="42" height="40" fill="none" xmlns:v="https://vecta.io/nano"><path d="M17.817 25.711c-.923-1.997-3.145-3.694-5.765-5.066L7.634 23.09c-1.448.824-2.371 2.296-2.371 3.868v11.156c0 .699.574.973.774 1.048a1.24 1.24 0 0 0 1.323-.249l8.436-8.111c.724-.699 1.423-1.423 1.922-2.271l.349-.624.2-.524c-.025-.574-.2-1.123-.449-1.672zm16.472-2.621l-4.418-2.471c-2.621 1.398-4.842 3.095-5.765 5.066-.25.574-.424 1.123-.474 1.697.05.175.125.324.2.499a7.04 7.04 0 0 0 .499.849c.449.674.998 1.273 1.597 1.847l8.635 8.286a1.24 1.24 0 0 0 1.323.25c.175-.075.774-.349.774-1.048V26.909c0-1.522-.898-2.97-2.371-3.818z" fill="#8d8d8d"/><path d="M41.501 2.176v11.68c0 1.473-.973 2.77-2.371 3.17-4.742 1.373-13.028 4.318-15.024 8.66-.25.574-.424 1.123-.474 1.722-1.323-2.421-1.947-5.216-1.647-8.036.399-3.993 2.496-7.637 5.815-9.958l11.78-8.261c.2-.15.449-.225.699-.225a1.16 1.16 0 0 1 .574.15 1.24 1.24 0 0 1 .649 1.098zm-41.08 0v11.68c0 1.473.973 2.77 2.371 3.17 4.742 1.373 13.028 4.318 15.024 8.66.25.574.424 1.123.474 1.722 1.323-2.421 1.947-5.216 1.647-8.036-.399-3.993-2.496-7.637-5.815-9.958L2.343 1.177c-.2-.15-.449-.225-.699-.225a1.16 1.16 0 0 0-.574.15c-.399.2-.649.599-.649 1.073z" fill="#fffbfd"/></svg>
